X:1
T:Title
%%score [ 1 2 3 4 ]
L:1/8
Q:1/4=120
M:2/2
K:G
V:1 treble nm="S."
V:2 treble nm="A."
V:3 treble-8 nm="T."
V:4 bass nm="B."
V:1
 A4 c2 c2 | B3 c d2 e2 | e2 ^d2 e4 | z8 | z8 | z8 | z8 | z4 z2 B2 | c2 d2 c2 BA | G2 A2 A2 ^G2 | %10
w: Gen- tils ga-|lants * * a-|ven- tu- reux|||||Qui|en a- mour * *|* plai- sir pre-|
 A2 c4 BA | B2 A4 ^G2 | A4 z2 A2 | c2 c2 B2 c2 | d2 d2 e4 | z8 | z2 A2 G3 G | A2 A2 G3 G | %18
w: nez, plai- * *|* sir pre-|nez, Mon-|trez vous tou- jours|gra- ci- eux||Et sa- ge-|ment vous gou- ver-|
 A2 A2 G3 G | e4 d3 e | fd g4 e2- | e2 f2 d2 g2 | gf e4 ^d2 | e2 g2 g2 f2 | G2 c4 B2 | A2 ^GF G4 | %26
w: nez, et sa- ge-|ment vous *|* * gou- ver-|||nez. S'au- cu- ne|da- me ren-|con- * * trez,|
 z4 z2 c2 | c2 B2 c4 | z4 z2 c2 | c2 B2 c4 | z2 c2 A2 A2 | B2 G2 A2 A2 | G2 c2 B2 c2- | %33
w: Pour|vos plai- sirs,|joy-|eu- se- ment,|Don- nez de-|dans, ne vous fei-|gnez: Au- tant en|
 c2 BA G2 c2- | c2 BA A2 ^G2 | A2 c2 A2 A2 | B2 G2 A2 A2 | G2 c2 B2 c2- | c2 BA G2 c2- | %39
w: * * * em- por-|* * * te le|vent. Don- nez de-|dans, ne vous fei-|gnez: Au- tant en|* * * em- por-|
 c2 BA A2 ^G2 | A2 c2 B2 c2- | c2 BA G2 B2- | BA A4 ^G2 | A8 |] %44
w: * * * te le|vent. Au- tant en|* * * em- por-|* * te le|vent.|
V:2
 A,4 E2 F2 | G6 E2 | F2 F2 E4 | z8 | z8 | z8 | z8 | z4 z2 B,2 | E2 =F2 E2 D2 | E2 DC B,4 | %10
w: Gen- tils ga-|lants a-|ven- tu- reux|||||Qui|en a- mour plai-|sir * * pre-|
 A,4 z2 G,2 | G3 F ED E2 | C4 z2 A2 | A2 A2 G2 E2 | F2 F2 E4 | z8 | z2 A,2 B,3 B, | %17
w: nez, plai-|sir * * * pre-|nez, Mon-|trez vous tou- jours|gra- ci- eux||Et sa- ge-|
 A,2 A,2 B,3 B, | A,2 A,3 B,2 B, | A,4 B,4 | z2 A,2 E2 F2- | F2 G3 F E2- | E2 ^D2 E4 | %23
w: ment vous gou- ver-|nez, et sa- *|ge- ment|vous gou- ver-||* * nez.|
 z2 E2 C2 G2 | G2 G2 G4 | E4 E4 | z4 z2 E2 | D2 D2 C4 | z4 z2 G2 | G2 G2 E4 | z2 E2 E2 E2 | %31
w: S'au- cu- ne|da- me ren-|con- trez,|Pour|vos plai- sirs,|joy-|eu- se- ment,|Don- nez de-|
 E2 E2 A,2 A,2 | B,2 C2 D2 C2 | A,4 B,2 E2- | E2 D2 E4 | z2 E2 E2 E2 | E2 E2 A,2 A,2 | %37
w: dans, ne vous fei-|gnez: Au- tant en|em- por- te|* le vent.|Don- nez de-|dans, ne vous fei-|
 B,2 C2 D2 C2 | A,4 B,2 E2- | E2 D2 E4 | z2 F2 G2 E2 | A,4 B,3 E | C2 D2 E4 | C4 E4 |] %44
w: gnez: Au- tant en|em- por- te|* le vent.|Au- tant en|em- por- *|te * le|* vent.|
V:3
 z8 | z8 | z4 z2 A2 | c2 c2 B3 c | d2 e2 e2 ^d2 | e4 z2 B2 | c2 d2 c2 BA | G2 A2 A2 ^G2 | A4 z4 | %9
w: ||Gen-|tils ga- lants *|* a- ven- tu-|reux Qui|en a- mour * *|* plai- sir pre-|nez,|
 z8 | e8 | dcBA B4 | A8 | z8 | z4 z2 A2 | c2 c2 B2 c2 | d2 d2 e2 e2 | d3 d e2 e2 | d3 d e2 e2 | %19
w: |plai-|sir * * * pre-|nez,||Mon-|trez vous tou- jours|gra- ci- eux Et|sa- ge- ment vous|gou- ver- nez, et|
 d3 d e4- | e4 c4 | d4 edcB | A4 B4 | A2 e2 e2 e2 | e2 e2 d2 cB | c2 c2 B4 | z8 | z4 z2 c2 | %28
w: sa- ge- ment|* vous|gou- * * * *|ver- *|nez. S'au- cu- ne|da- me ren- * *|* con- trez,||Pour|
 c2 B2 c2 e2 | d2 d2 c4 | z2 A2 c2 c2 | B2 c2 d2 d2 | e4 z2 e2 | e2 e2 e2 e2 | A4 B4 | %35
w: vos plai- sirs, joy-|eu- se- ment,|Don- nez de-|dans, ne vous fei-|gnez: Au-|tant en em- por-|te le|
 A2 A2 c2 c2 | B2 c2 d2 d2 | e4 z2 e2 | e2 e2 e2 e2 | A4 B4 | A4 z2 e2 | e2 e2 e2 e2 | A4 B4 | %43
w: vent. Don- nez de-|dans, ne vous fei-|gnez: Au-|tant en em- por-|te le|vent. Au-|tant en em- por-|te le|
 A8 |] %44
w: vent.|
V:4
 z8 | z8 | z4 A,4 | A,2 A,2 G,4- | G,2 E,2 F,2 F,2 | E,2 A,2 A,2 G,2 | A,2 G,F, E,2 D,2 | %7
w: ||Gen-|tils ga- lants|* a- ven- tu-|reux, Qui en a-|mour * * * plai-|
 E,2 D,C, B,,2 B,,2 | A,,4 z4 | z8 | A,,3 B,, C,D,E,F, | G,2 A,2 E,4 | A,,8 | z8 | z4 z2 A,2 | %15
w: sir * * * pre-|nez,,||plai- * * * * *|sir * pre-|nez,||Mon-|
 A,2 A,2 G,2 A,2 | F,2 F,2 E,2 E,2 | F,3 F, E,2 E,2 | F,3 F, E,2 E,2 | F,3 F, E,3 F, | %20
w: trez vous tou- jours|gra- ci- eux Et|sa- ge- ment vous|gou- ver- nez, et|sa- ge- ment vous|
 G,2 A,3 G, F,E, | D,2 G,2 E,2 A,2 | F,2 F,2 E,4 | z2 A,2 A,2 E,2 | E,2 C,2 G,4 | A,4 E,4 | z8 | %27
w: gou- ver- * * *|nez, vous gou- *|ver- * nez.|S'au- cu- ne|da- me ren-|con- trez,||
 z4 z2 E,2 | D,2 D,2 C,2 C,2 | G,2 G,2 C,4 | z2 A,2 A,2 A,2 | G,2 E,2 F,2 F,2 | E,2 A,2 G,2 A,2- | %33
w: Pour|vos plai- sirs, joy-|eu- se- ment,|Don- nez de-|dans, ne vous fei-|gnez: Au- tant en|
 A,2 G,F, E,2 C,2 | =F,2 F,2 E,4 | z2 A,2 A,2 A,2 | G,2 E,2 F,2 F,2 | E,2 A,2 G,2 A,2- | %38
w: * em- * * por-|te le vent.|Don- nez de-|dans, ne vous fei-|gnez: Au- tant en|
 A,2 G,F, E,2 C,2 | =F,2 F,2 E,4 | z2 A,2 G,2 A,2- | A,2 G,F, E,2 G,2 | A,2 =F,2 E,4 | A,,8 |] %44
w: * * * em- por-|te le vent.|Au- tant en|* em- * * por-|* te le|vent.|

